packages/core/src/svgs/tokens/mono/ETHX.svg

<svg width="24" height="24" viewBox="0 0 24 24" fill="none" xmlns="http://www.w3.org/2000/svg">
<path d="M11.3412 2H12.5765C16.9529 2.34117 20.6 5.24705 21.6941 9.50583C21.8059 9.94711 21.9058 10.4941 22 11.1588V12.7529C21.7059 15.2941 20.7411 17.4824 18.8706 19.2705C17.3827 20.6914 15.4851 21.6073 13.4471 21.8883L12.7176 22H11.2705C8.86495 21.8107 6.60685 20.7654 4.90596 19.0537C3.20507 17.342 2.17407 15.0774 2 12.6705V11.3235C2.17512 8.90573 3.21599 6.6321 4.93173 4.91961C6.64746 3.20713 8.92305 2.17055 11.3412 2ZM5.88235 9.34113C6.5566 7.7856 7.79738 6.54482 9.35293 5.87058C9.35815 5.86402 9.36185 5.85643 9.36391 5.84832C9.36597 5.84021 9.36624 5.83176 9.36473 5.82352C9.36254 5.81489 9.35856 5.80684 9.35293 5.79999L8.09999 4.54705C8.0895 4.53637 8.0761 4.529 8.06146 4.52587C8.04681 4.52273 8.03158 4.52396 8.01763 4.5294C8.00663 4.53298 7.99657 4.53902 7.98822 4.54705L4.55294 7.98822C4.5451 7.99589 4.53888 8.00505 4.53464 8.01515C4.5304 8.02525 4.52822 8.0361 4.52822 8.04705C4.52822 8.058 4.5304 8.06884 4.53464 8.07894C4.53888 8.08905 4.5451 8.0982 4.55294 8.10587L5.80587 9.35293C5.81132 9.35801 5.81789 9.36172 5.82504 9.36377C5.83221 9.36583 5.83974 9.36611 5.84705 9.36473C5.85436 9.36377 5.86136 9.36117 5.8675 9.35719C5.87363 9.35307 5.87871 9.34758 5.88235 9.34113ZM15.0942 5.99999L15.053 6.02351C15.0294 6.03529 15.0294 6.05293 15.053 6.06469C16.5385 6.833 17.6822 8.13 18.2588 9.70005C18.2882 9.79407 18.3412 9.80587 18.4117 9.73532L19.9412 8.20586C19.949 8.19741 19.955 8.18739 19.9587 8.17647V8.14116C19.9604 8.11548 19.9519 8.0902 19.9353 8.07057L16.5941 4.72352C16.5793 4.7071 16.561 4.69398 16.5408 4.68501C16.5205 4.67603 16.4986 4.67139 16.4765 4.67139C16.4544 4.67139 16.4324 4.67603 16.4121 4.68501C16.3919 4.69398 16.3737 4.7071 16.3588 4.72352C15.9364 5.14814 15.5148 5.57363 15.0942 5.99999ZM17.9588 14.9882C17.2628 16.3918 16.0853 17.4983 14.6412 18.1058C14.6346 18.114 14.6301 18.1236 14.628 18.1338C14.626 18.1441 14.6264 18.1547 14.6294 18.1647C14.6294 18.1824 14.6412 18.1882 14.647 18.1941L16.1705 19.7176C16.1981 19.7446 16.235 19.7597 16.2735 19.7597C16.312 19.7597 16.3489 19.7446 16.3764 19.7176L19.7353 16.3588C19.7531 16.3418 19.7655 16.3198 19.7707 16.2957C19.7759 16.2715 19.7739 16.2464 19.7647 16.2235C19.7578 16.2078 19.7478 16.1938 19.7353 16.1823L18.2 14.647C18.1915 14.639 18.1812 14.6331 18.1699 14.6301C18.1585 14.6269 18.1467 14.6267 18.1353 14.6294C18.1231 14.6319 18.1117 14.6375 18.1025 14.6457C18.0932 14.6541 18.0862 14.6647 18.0823 14.6765C18.053 14.7764 18.0118 14.8824 17.9588 14.9882ZM9.68824 18.2236C8.11675 17.6677 6.81792 16.5309 6.05882 15.0471C6.05416 15.0464 6.04944 15.0472 6.04526 15.0493C6.04106 15.0515 6.03758 15.0548 6.03529 15.0587L4.75293 16.3352C4.71764 16.3764 4.71764 16.4176 4.75293 16.453L8.16469 19.8529C8.17767 19.8655 8.19383 19.8743 8.21144 19.8785C8.22905 19.8827 8.24745 19.8819 8.26469 19.8764C8.27645 19.8764 8.28822 19.8647 8.29411 19.8529L9.72942 18.4058C9.75001 18.3872 9.76442 18.3625 9.7706 18.3353C9.7706 18.3117 9.7706 18.2882 9.75879 18.2647C9.75289 18.2529 9.72942 18.2352 9.68824 18.2177V18.2236Z" fill="white"/>
<path d="M11.9995 14.4648L15.1406 12.6707L11.9995 16.9472V14.4648Z" fill="white"/>
<path d="M11.9996 14.4648L8.8584 12.6707L11.9996 16.9472V14.4648Z" fill="white"/>
<path d="M11.9995 13.7706L15.1406 11.9647L11.9995 10.6294V13.7706Z" fill="white"/>
<path d="M11.9995 7.00024L15.1406 11.9767L11.9995 10.6649V7.00024Z" fill="white"/>
<path d="M11.9996 13.7706L8.8584 11.9705L11.9996 10.6353V13.7706Z" fill="white"/>
<path d="M11.9996 7.00024L8.8584 11.9767L11.9996 10.665V7.00024Z" fill="white"/>
</svg>

<svg xmlns="http://www.w3.org/2000/svg" width="24" height="24" fill="none" viewBox="0 0 24 24">
    <path fill="#fff" d="M11.341 2h1.236c4.376.341 8.023 3.247 9.117 7.506.112.441.212.988.306 1.653v1.594c-.294 2.541-1.259 4.73-3.13 6.517a9.8 9.8 0 0 1-5.423 2.618l-.73.112H11.27A10.09 10.09 0 0 1 2 12.67v-1.347A10.076 10.076 0 0 1 11.341 2M5.882 9.341a6.68 6.68 0 0 1 3.47-3.47.06.06 0 0 0 .013-.047L9.353 5.8 8.1 4.547a.08.08 0 0 0-.082-.018.1.1 0 0 0-.03.018L4.553 7.988a.08.08 0 0 0 0 .118l1.253 1.247a.05.05 0 0 0 .041.012.05.05 0 0 0 .035-.024M15.094 6l-.041.024c-.024.011-.024.029 0 .04A6.7 6.7 0 0 1 18.259 9.7q.046.141.153.035l1.53-1.53a.1.1 0 0 0 .017-.029v-.035a.1.1 0 0 0-.024-.07l-3.34-3.347a.16.16 0 0 0-.236 0Q15.725 5.36 15.094 6m2.865 8.988a6.53 6.53 0 0 1-3.318 3.118.07.07 0 0 0-.012.059c0 .017.012.023.018.03l1.524 1.523a.147.147 0 0 0 .205 0l3.36-3.36a.12.12 0 0 0 .029-.134.1.1 0 0 0-.03-.042L18.2 14.647a.07.07 0 0 0-.065-.018.07.07 0 0 0-.053.048q-.043.151-.123.311m-8.27 3.236a6.52 6.52 0 0 1-3.63-3.177q-.008 0-.014.002l-.01.01-1.282 1.276q-.052.064 0 .118l3.412 3.4a.1.1 0 0 0 .1.023c.011 0 .023-.011.03-.023l1.434-1.447a.14.14 0 0 0 .042-.07c0-.024 0-.048-.012-.071q-.01-.02-.07-.047z"/>
    <path fill="#fff" d="m12 14.465 3.14-1.794L12 16.947zm0 0L8.858 12.67 12 16.947zm0-.695 3.14-1.805L12 10.629z"/>
    <path fill="#fff" d="m12 7 3.14 4.977L12 10.665zm0 6.77-3.142-1.8L12 10.636z"/>
    <path fill="#fff" d="m12 7-3.142 4.977L12 10.665z"/>
</svg>
